X:266
T:Canto per ordenar la caza de la vicuna
Z:Jack Campin, http://www.campin.me.uk/
F:Jack Campin's Nine-Note Tunebook
% last edit 03-02-2013
G:Dance song for a dramatized vicuna hunting ritual, Bolivia
S:http://quenaycharango.blogspot.com
M:2/4
L:1/8
Q:1/4=132 % guess
K:GDor
        GA Bc|[M:1/4] d2|BG|B<d|cA|G2|AA|GG |
[M:2/4] BB dc|[M:1/4] A2|FD|GG |FD|G2|AA|G2|]

